X:145
T:Reel 145
M:4/4
K:Gmaj
L:1/8
BABd g2fd|decd AFAc|BABc d2gf| (3def cA AGG2:|b/2a/2b/2a/2bc' bagf|defg agfe|d/2e/2fga b2ga|bd'c'a agg2|b/2c'/2b/2a/2bc' bagb|agfg abc'a|baga bage|ddcA BGG2|
